public/ljus.svg

<svg width="121" height="120" viewBox="0 0 121 120" fill="none" xmlns="http://www.w3.org/2000/svg">
<path d="M74.2276 47.5472C75.5696 46.6765 76.8424 45.844 78.1223 45.0227C81.3707 42.9357 84.1224 40.4606 86.5128 37.6948C88.2781 35.6529 89.8938 33.5574 91.305 31.3899C93.0039 28.7808 94.0199 26.1533 94.3784 23.5032C94.4292 23.1292 94.5167 22.744 94.6437 22.363C94.6832 22.2445 94.9089 22.054 95.0458 22.0229C95.1968 21.9876 95.3972 22.0582 95.4805 22.1527C95.5679 22.2515 95.5454 22.4293 95.5665 22.5747C96.0774 26.166 95.012 29.8631 92.6596 33.6505C91.0735 36.2046 89.3816 38.7207 87.2141 41.0843C84.8971 43.613 82.0706 45.5716 78.8956 47.1239C77.4591 47.8266 76.0423 48.0707 74.73 47.7659C74.5479 47.7236 74.4012 47.6248 74.2276 47.5472Z" fill="white"/>
<path d="M86.8047 46.7245C86.7525 47.1591 86.7835 47.6319 86.6311 48.0213C86.3164 48.8299 86.013 49.6907 85.5135 50.3638C82.711 54.1428 79.3483 57.1781 75.1319 58.9914C73.2791 59.7886 71.3304 59.9425 69.3548 59.7802C68.3924 59.7012 67.6685 59.1522 67.0688 58.3888C66.8698 58.1348 66.6483 57.8342 66.9757 57.5097C67.2424 57.2458 67.5655 57.3841 67.6967 57.6141C68.1328 58.3775 68.8073 58.2646 69.462 58.283C72.0712 58.3592 74.5011 57.6409 76.7942 56.3483C79.4118 54.8737 81.7769 53.0082 83.9203 50.828C85.0619 49.6681 86.0145 48.3403 86.49 46.6709C86.5958 46.6878 86.7003 46.7062 86.8061 46.7231L86.8047 46.7245Z" fill="white"/>
<path d="M81.2508 80.6563C81.6332 80.3331 81.9761 80.0297 82.3331 79.7447C83.0471 79.176 83.7908 78.6511 84.6177 78.2559C84.749 78.1939 84.8873 78.1388 85.0284 78.1021C85.3148 78.0288 85.5265 78.1939 85.5208 78.4888C85.5152 78.819 85.4813 79.1506 85.4799 79.4808C85.4799 79.6501 85.5081 79.8237 85.5491 79.9902C85.6267 80.3021 85.7593 80.3458 85.9992 80.1243C86.1798 79.9563 86.3506 79.7687 86.4846 79.5641C86.6469 79.3157 86.7697 79.0419 86.9023 78.7752C86.9701 78.6398 87.0561 78.5353 87.2198 78.5466C87.3765 78.5565 87.447 78.6595 87.4809 78.8063C87.5768 79.2254 88.1102 79.5471 88.5336 79.4385C88.6874 79.399 88.8341 79.3355 88.9865 79.2875C89.1799 79.2268 89.3365 79.2818 89.3958 79.4272C89.455 79.5725 89.3873 79.7235 89.1996 79.8096C88.4292 80.1581 87.9169 80.1525 87.3214 79.5923C87.2946 79.5669 87.2636 79.5443 87.2184 79.5076C87.1352 79.6332 87.0688 79.763 86.9757 79.8689C86.7372 80.1398 86.5171 80.4389 86.2349 80.6577C85.7621 81.0232 85.2555 80.8524 85.0425 80.2908C84.883 79.8717 84.8788 79.4314 84.9098 78.9897C84.9141 78.9206 84.9211 78.8529 84.931 78.7456C84.8238 78.7964 84.7447 78.8289 84.6685 78.8698C83.5086 79.4921 82.5011 80.3162 81.5274 81.1939C81.1436 81.5396 80.9728 81.939 80.874 82.4329C80.4013 84.7654 79.9004 87.0924 79.1257 89.3487C78.842 90.1742 78.5175 90.9842 78.0617 91.7321C77.8458 92.0877 77.6045 92.425 77.263 92.6733C76.652 93.1178 75.9563 92.9781 75.5555 92.3318C75.2253 91.7984 75.1943 91.2072 75.2789 90.6117C75.4709 89.2485 76.0127 88.0054 76.6703 86.8144C77.7145 84.9235 78.9563 83.168 80.3914 81.5495C80.462 81.4691 80.5114 81.3534 80.5325 81.2475C80.9135 79.4102 81.2381 77.5589 81.7644 75.754C81.8364 75.5057 81.9394 75.263 82.0509 75.0301C82.1116 74.9031 82.2541 74.8213 82.3882 74.8904C82.4785 74.937 82.5363 75.0598 82.5914 75.1571C82.6097 75.191 82.5843 75.2573 82.5645 75.3025C82.0791 76.4342 81.8773 77.6421 81.6135 78.8331C81.4949 79.3679 81.3919 79.9055 81.2833 80.4418C81.272 80.4968 81.2677 80.5532 81.2536 80.6548L81.2508 80.6563ZM80.2447 82.6629L80.1896 82.6262C80.1671 82.6643 80.1487 82.7052 80.1219 82.7391C79.0438 84.098 78.0377 85.5077 77.2023 87.0317C76.5856 88.1578 76.0678 89.3262 75.8561 90.606C75.7785 91.0774 75.7785 91.5487 76.017 91.9847C76.2484 92.4066 76.6308 92.4913 76.9765 92.1597C77.2221 91.9254 77.4577 91.6531 77.6087 91.3539C77.9502 90.6738 78.279 89.9809 78.5386 89.2655C79.2019 87.4367 79.621 85.5401 80.0372 83.645C80.1092 83.319 80.1755 82.9917 80.2447 82.6643V82.6629Z" fill="white"/>
<path d="M89.8388 78.8767C89.7541 78.7653 89.6751 78.675 89.6116 78.5734C89.5128 78.4167 89.534 78.2319 89.6483 78.1373C89.7668 78.04 89.9375 78.0597 90.0772 78.1952C90.1675 78.2827 90.2522 78.3758 90.3425 78.4718C90.7433 78.1726 91.1285 77.8819 91.5194 77.5969C91.6718 77.4854 91.8284 77.3414 92.0373 77.4515C92.2362 77.5573 92.208 77.7606 92.2094 77.944C92.2108 78.167 92.2179 78.3899 92.2094 78.6115C92.1967 78.936 92.1149 79.2394 91.8637 79.5428C92.3477 79.6712 92.7951 79.8405 93.2579 79.904C94.5053 80.0748 95.6963 79.8095 96.8153 79.269C97.5632 78.9078 98.273 78.4647 98.9884 78.0414C99.1564 77.9412 99.2904 77.7761 99.4245 77.6265C99.5388 77.4995 99.7053 77.4614 99.8492 77.5588C99.9889 77.6533 100.034 77.8396 99.9198 77.9765C99.79 78.1317 99.6432 78.2798 99.4795 78.3956C98.1756 79.3156 96.797 80.0861 95.2095 80.3965C94.1624 80.6011 93.1224 80.6068 92.1092 80.2018C91.7325 80.0508 91.3402 79.9365 90.9691 79.7728C90.7574 79.6783 90.5669 79.5273 90.3849 79.3805C90.2762 79.2916 90.2071 79.2888 90.1125 79.3847C90.0603 79.437 89.9912 79.4793 89.922 79.5089C89.7583 79.5823 89.5791 79.5259 89.5071 79.3862C89.4338 79.2422 89.5043 79.0489 89.6638 78.9642C89.7188 78.936 89.7738 78.9092 89.8402 78.8767H89.8388ZM91.6774 78.2643C91.6577 78.253 91.6379 78.2417 91.6196 78.2305C91.3472 78.4379 91.0735 78.6453 90.7772 78.8711C90.9267 78.9544 91.0439 79.0306 91.1694 79.087C91.4122 79.1942 91.5236 79.1434 91.5843 78.881C91.6323 78.6792 91.6478 78.4703 91.6774 78.2643Z" fill="white"/>
<path d="M82.9455 71.6112C82.9272 71.8271 82.882 71.9654 82.7042 71.9922C82.5391 72.0176 82.4375 71.9188 82.3881 71.7749C82.3317 71.6084 82.2823 71.4362 82.2499 71.2627C82.2216 71.1131 82.271 70.9833 82.4333 70.9297C82.5857 70.8803 82.7325 70.9494 82.7974 71.1202C82.8637 71.2965 82.9074 71.4814 82.9455 71.6084V71.6112Z" fill="white"/>
<path d="M84.4664 57.4954C84.1136 57.5406 83.7989 57.6521 83.5026 57.8299C82.948 58.1643 82.4894 58.6102 82.0618 59.0886C81.074 60.1949 80.2881 61.4409 79.5952 62.7434C77.621 66.4518 76.1972 70.3705 74.8327 74.3456C74.6887 74.7661 72.8867 76.499 71.9879 77.3626C71.1087 78.2078 70.176 78.9952 69.1134 79.6091C67.8688 80.3301 66.5508 80.7873 65.0847 80.6462C64.1308 80.5545 63.3222 80.165 62.7281 79.3974C62.1326 78.6269 62.2653 77.5319 61.6373 76.8405C61.1279 76.2788 61.015 76.8405 61.015 76.8405C61.0983 77.2878 61.2041 77.7309 61.3636 78.1683C61.7065 79.1095 62.2004 79.952 63.0371 80.5446C64.1124 81.3066 65.3217 81.4026 66.5748 81.2107C67.873 81.0117 69.0273 80.4571 70.0984 79.7177C71.4714 78.7709 72.5114 77.8776 73.684 76.7022C73.8576 76.5286 74.1441 76.2464 74.3134 76.0686C74.3261 76.0784 74.0791 77.1297 73.9493 77.6702C73.7179 78.634 73.5062 79.5145 73.4004 80.5065C73.3058 81.3941 73.5161 82.0531 74.3021 81.9882C74.3162 81.9882 74.693 82.0559 74.7748 81.9134C74.8553 81.7737 74.8073 81.5945 74.6478 81.4816C74.542 81.4054 74.3614 81.4252 74.2428 81.3715C73.9719 81.246 74.0283 80.8988 74.0396 80.7309C74.0707 80.2709 74.1102 79.9816 74.209 79.5371C74.5448 78.0286 75.1742 75.5069 75.2447 75.4265C75.7936 74.7986 76.5994 74.0789 77.2443 73.403C79.7758 70.7571 82.289 67.8051 84.242 64.7077C84.9222 63.631 85.3413 62.7307 85.8027 61.5383C86.0497 60.9005 86.5252 59.567 86.0863 58.3915C85.8253 57.693 85.2453 57.3953 84.465 57.494L84.4664 57.4954ZM84.9758 60.0213C84.647 61.0515 84.1348 61.9941 83.5802 62.9141C81.8798 65.7378 79.955 68.4034 77.8821 70.9631C77.2584 71.7336 76.6079 72.4815 75.9686 73.2393C75.9206 73.2957 75.867 73.3493 75.8162 73.403C75.7301 73.4919 75.7541 73.4397 75.7739 73.3818C75.9164 72.9528 76.0533 72.5224 76.2015 72.0949C77.3713 68.7152 78.781 65.4414 80.5421 62.3257C81.1869 61.1841 81.9123 60.0947 82.8478 59.1662C83.1583 58.8586 83.5167 58.5961 83.8737 58.3407C84.0247 58.232 84.2208 58.1714 84.4057 58.1304C84.8375 58.0359 85.1141 58.2462 85.1677 58.6836C85.2241 59.1465 85.1141 59.5867 84.9758 60.0213Z" fill="white"/>
<path d="M50.8003 100.736H50.4881C50.4347 100.794 50.6105 100.786 50.8003 100.736Z" fill="white"/>
<path d="M94.6107 19.2276C93.9532 18.9144 93.3986 18.865 92.8257 19.4633C92.2937 20.0207 91.653 20.4539 91.0844 20.9732C87.2108 24.525 83.5151 28.2771 80.0325 32.2706C76.0729 36.8116 72.1853 41.4217 68.6067 46.3225C62.7999 54.277 58.266 63.0188 54.6761 72.3477C52.5976 77.7481 51.0058 83.2952 50.1874 89.0892C49.891 91.1876 49.7062 93.2803 49.7527 95.3701C49.5552 95.3913 49.3322 95.4153 49.0782 95.4421C38.3636 96.6049 32.6444 96.2295 32.0785 94.3273C31.4689 92.2741 35.1618 89.8075 37.4393 88.6744C37.6976 88.546 38.0518 88.3696 38.2535 88.0408C38.413 87.7811 38.4511 87.4608 38.3608 87.1405C38.2493 86.7425 37.9487 86.3771 37.5762 86.188C33.7478 84.2364 25.4759 84.5483 21.2214 85.5092C21.0675 85.5431 20.973 85.6955 21.0069 85.8479C21.0407 86.0017 21.1945 86.0963 21.3455 86.0624C25.0088 85.2355 33.4811 84.7374 37.3166 86.6932C37.548 86.8117 37.7427 87.0473 37.8119 87.2929C37.8443 87.41 37.8641 87.5836 37.7667 87.7416C37.658 87.918 37.4478 88.0337 37.1825 88.165C36.5108 88.4994 30.6476 91.5164 31.531 94.4896C32.0263 96.1533 35.1138 96.6895 39.1044 96.6895C42.1722 96.6895 45.7734 96.372 49.1375 96.0079C49.5834 95.96 49.9475 95.9204 50.2085 95.8951C50.3271 95.8838 50.4202 95.8019 50.4527 95.6947H50.4583C50.4583 95.6665 50.4611 95.6382 50.4611 95.61C50.4611 95.6015 50.4639 95.5945 50.4639 95.586C50.4639 95.5846 50.4639 95.5832 50.4625 95.5804C50.4654 95.0286 50.4809 94.4741 50.5119 93.9195C50.7391 89.9415 51.4729 86.0525 52.5496 82.2566C55.7951 70.8124 60.7707 60.294 67.4693 50.7435C72.9459 42.9344 79.3171 36.027 86.2555 29.7278C89.0354 27.2033 91.9578 24.8679 95.1441 22.9488C95.8285 22.5367 96.5341 22.1656 97.3215 21.7239C96.6554 20.516 95.8285 19.809 94.6065 19.2276H94.6107Z" fill="white"/>
</svg>

<svg xmlns="http://www.w3.org/2000/svg" width="121" height="120" fill="none" viewBox="0 0 121 120"><path fill="#fff" d="M74.228 47.547c1.342-.87 2.614-1.703 3.894-2.524 3.249-2.087 6-4.562 8.39-7.328 1.766-2.042 3.382-4.138 4.793-6.305 1.699-2.61 2.715-5.237 3.073-7.887.051-.374.139-.759.266-1.14.04-.119.265-.309.402-.34a.5.5 0 0 1 .434.13c.088.099.065.276.087.422.51 3.591-.555 7.288-2.907 11.076-1.587 2.554-3.278 5.07-5.446 7.433-2.317 2.529-5.143 4.488-8.318 6.04-1.437.703-2.854.947-4.166.642-.182-.042-.329-.141-.502-.219M86.805 46.725c-.053.434-.022.907-.174 1.296-.315.809-.618 1.67-1.118 2.343-2.802 3.779-6.165 6.814-10.381 8.627-1.853.798-3.802.952-5.777.79-.963-.08-1.687-.629-2.286-1.392-.2-.254-.42-.555-.093-.88.266-.263.59-.125.72.105.437.764 1.111.65 1.766.669 2.61.076 5.04-.642 7.332-1.935 2.618-1.474 4.983-3.34 7.126-5.52 1.142-1.16 2.094-2.488 2.57-4.157l.316.052zM81.25 80.656c.383-.323.726-.626 1.083-.911.714-.569 1.458-1.094 2.285-1.49.131-.061.27-.116.41-.153.287-.073.498.092.493.387-.006.33-.04.662-.041.992 0 .17.028.343.07.51.077.311.21.355.45.133.18-.168.35-.355.485-.56.162-.248.285-.522.417-.789.068-.135.154-.24.318-.228.156.01.227.112.26.26.097.418.63.74 1.054.632.153-.04.3-.103.453-.151.193-.061.35-.006.409.14.059.145-.009.296-.196.382-.77.348-1.283.343-1.879-.218-.026-.025-.057-.048-.103-.084-.083.125-.15.255-.242.36-.239.272-.459.57-.741.79-.473.365-.98.194-1.192-.367-.16-.42-.164-.86-.133-1.301.004-.07.011-.137.021-.244-.107.05-.186.083-.263.124-1.16.622-2.167 1.446-3.14 2.324-.384.346-.555.745-.654 1.239-.473 2.332-.974 4.66-1.748 6.916-.284.825-.609 1.635-1.064 2.383-.216.356-.457.693-.799.941-.611.445-1.307.305-1.708-.341-.33-.534-.36-1.125-.276-1.72.192-1.363.734-2.607 1.391-3.798a29.2 29.2 0 0 1 3.721-5.264c.071-.08.12-.197.141-.302.382-1.838.706-3.69 1.232-5.494.072-.248.175-.491.287-.724.06-.127.203-.209.337-.14.09.047.148.17.203.267.019.034-.007.1-.026.145-.486 1.132-.688 2.34-.951 3.531-.12.535-.222 1.073-.33 1.609-.012.055-.016.111-.03.213zm-1.005 2.007-.055-.037c-.023.038-.041.08-.068.113-1.078 1.359-2.084 2.769-2.92 4.293-.616 1.126-1.134 2.294-1.346 3.574-.078.471-.078.943.161 1.379.231.422.614.506.96.175.245-.235.48-.507.632-.806.341-.68.67-1.373.93-2.088.663-1.83 1.082-3.726 1.498-5.621.072-.326.138-.653.208-.98zM89.839 78.877c-.085-.112-.164-.202-.227-.304-.1-.156-.078-.341.036-.436.119-.097.29-.077.43.058.09.088.174.18.264.277.401-.3.787-.59 1.177-.875.153-.112.31-.256.518-.145.2.105.171.309.172.492.002.223.009.446 0 .668a1.47 1.47 0 0 1-.345.93c.484.13.931.299 1.394.362 1.247.17 2.438-.094 3.557-.635.748-.361 1.458-.804 2.173-1.228.168-.1.302-.265.436-.415.115-.127.281-.165.425-.067.14.094.185.28.07.418-.129.155-.276.303-.44.419-1.303.92-2.682 1.69-4.27 2-1.047.205-2.087.21-3.1-.194-.376-.151-.769-.266-1.14-.43-.212-.094-.402-.245-.584-.392-.109-.088-.178-.091-.273.005a.6.6 0 0 1-.19.124c-.164.073-.343.017-.415-.123-.073-.144-.003-.337.157-.422l.176-.087zm1.838-.613q-.03-.016-.057-.033c-.273.207-.547.414-.843.64.15.083.267.16.392.216.243.107.355.056.415-.206.048-.202.064-.41.093-.617M82.946 71.611c-.019.216-.064.354-.242.381-.165.026-.266-.073-.316-.217a4 4 0 0 1-.138-.512c-.028-.15.021-.28.183-.333.153-.05.3.02.364.19.067.176.11.361.148.488zM84.466 57.495a2.4 2.4 0 0 0-.963.335c-.555.334-1.014.78-1.441 1.259-.988 1.106-1.774 2.352-2.467 3.654-1.974 3.709-3.398 7.628-4.762 11.603-.144.42-1.946 2.153-2.845 3.017-.88.845-1.812 1.632-2.875 2.246-1.244.721-2.562 1.178-4.028 1.037-.954-.091-1.763-.481-2.357-1.249-.595-.77-.463-1.865-1.09-2.556-.51-.562-.623 0-.623 0 .083.447.19.89.349 1.327.343.941.836 1.784 1.673 2.377 1.075.762 2.285.858 3.538.666 1.298-.2 2.452-.754 3.523-1.493 1.373-.947 2.413-1.84 3.586-3.016.174-.173.46-.456.63-.633.012.01-.235 1.06-.365 1.601-.231.964-.443 1.844-.549 2.837-.094.887.116 1.546.902 1.481.014 0 .391.068.473-.075.08-.14.032-.319-.127-.431-.106-.077-.287-.057-.405-.11-.271-.126-.215-.473-.203-.641.03-.46.07-.75.169-1.194.336-1.508.965-4.03 1.036-4.11.549-.628 1.354-1.348 2-2.024 2.53-2.646 5.044-5.598 6.997-8.695.68-1.077 1.1-1.977 1.56-3.17.248-.637.723-1.971.284-3.146-.26-.699-.84-.997-1.621-.898zm.51 2.526c-.329 1.03-.841 1.973-1.396 2.893-1.7 2.824-3.625 5.49-5.698 8.05-.624.77-1.274 1.517-1.913 2.275-.048.057-.102.11-.153.164-.086.089-.062.037-.042-.021.142-.43.28-.86.427-1.287 1.17-3.38 2.58-6.654 4.341-9.77.645-1.14 1.37-2.23 2.306-3.159.31-.307.669-.57 1.026-.825.15-.109.347-.17.532-.21.431-.095.708.115.762.553.056.463-.054.903-.192 1.337M50.8 100.736h-.312c-.053.058.123.05.312 0"/><path fill="#fff" d="M94.61 19.228c-.657-.314-1.211-.363-1.784.235-.532.558-1.173.99-1.742 1.51a142 142 0 0 0-11.052 11.298c-3.96 4.54-7.847 9.15-11.425 14.051-5.807 7.955-10.341 16.697-13.93 26.026-2.08 5.4-3.671 10.947-4.49 16.741-.296 2.099-.48 4.191-.434 6.281l-.675.072c-10.714 1.163-16.434.788-17-1.115-.61-2.053 3.084-4.52 5.361-5.653.259-.128.613-.304.815-.633.159-.26.197-.58.107-.9a1.58 1.58 0 0 0-.785-.953c-3.828-1.952-12.1-1.64-16.355-.679a.283.283 0 1 0 .125.553c3.663-.826 12.135-1.325 15.97.631.232.119.427.354.496.6a.56.56 0 0 1-.045.449c-.109.176-.32.292-.585.423-.671.334-6.534 3.351-5.651 6.325.495 1.663 3.583 2.2 7.573 2.2 3.068 0 6.67-.318 10.034-.682.445-.048.81-.088 1.07-.113a.28.28 0 0 0 .245-.2h.005l.003-.085.003-.024-.002-.006a33 33 0 0 1 .05-1.66c.227-3.978.96-7.868 2.038-11.663 3.245-11.445 8.22-21.963 14.92-31.514 5.476-7.809 11.847-14.716 18.786-21.015 2.78-2.525 5.702-4.86 8.888-6.78.684-.411 1.39-.782 2.177-1.224-.666-1.208-1.492-1.915-2.715-2.496z"/></svg>
